X: 2040
T: Mr. JAMES TROTTER
Q: "Reel."
R: reel
B: Kerr's v.2 p.7 #40
Z: 2016 John Chambers <jc:trillian.mit.edu>
M: C
L: 1/8
K: A
e |\
dcBA GABd | cAec dBBe |\
dcBA GABd | ceBd cAA ::\
e |\
aece dfed |
cAec dBBg |\
[1 aece dfed | ceBd cAA :|\
[2 aAec dBfd | ceBd cAA |]

%%sep 1 1 500
%%sep 1 1 500

